!!!OTL: DER SCHAEFER UEBER DIE BRUECKE KAM
!!!ARE: Europa, Mitteleuropa, Deutschland, Hessen, Darmstadt, Alsfeld
!!!SCT: E0043B
!!!YEM: Copyright 1995, estate of Helmut Schaffrath.
**kern
*ICvox
*Ivox
*M4/4
*k[f#]
*G:
{4d
=1
4g
4g
4b
4b
=2
4dd
4dd
4b}
{4dd
=3
8ee
8dd
8cc
8b
4cc
4cc
=4
8dd
8cc
8b
8a
4b}
{8g
8a
=5
4b
4b
4dd
4cc
=6
4b
4a
4g}
{4b
=7
8a
8g
8b
8a
4g
4b
=8
4dd
4d
4g}
{8g
8a
=9
4b
4b
4dd
4cc
=10
4b
4a
4g}
==
!!!AGN: erzaehlendes Volks - Lied, Ritter - Sage, Ballade ?
!!!ONB: ESAC (Essen Associative Code) Database: ERK1
!!!AMT: simple quadruple
!!!AIN: vox
!!!EED: Helmut Schaffrath
!!!EEV: 1.0
*-
